X: 23099
T: Laura Lynn Cunningham
R: reel
M: 4/4
K: Bminor
FB B2 Ac c2|d2fd eAcA|FB B2 FBBc|Acef c2BA|
FB B2 Ac c2|d2fd eAcA|B2fB ecAB|BAdc B2BA|
FB B2 Ac c2|d2fd eAcA|FB B2 FBBc|Acef c2ba|
bfab efaf|eAcd dcBA|BF F2 ABcf|f2ec B3z||
|:B2 c/B/A BF F2|EFAB ceae|fB B2 FBBc|Acef c2 ba|
bfab a2fe|cfec ecAc|BF F2 ABce|f2ec B2BA:|

